X:182
T:RVW2/2/182 Dreams of Napoleon
C:Mr. H. Burstow, Horsham, Sussex, 22 December 1904
Z:Transcribed by Simon Furey and Lewis Jones
F:http://www.vwml.org/record/RVW2/1/182
L:1/8
Q:1/4=100
M:2/4
I:linebreak $
K:G
"^(Editorial suggestion  " d2 | g2 gg | B2 AG | d2 dd | d2 AB |$ c2 cd | e2 dB | B2 A2- | A2 dB | 
G2 GG |$ B2 AG | d2 ef | g2 g>f | f2 ed | ed cB |$[M:3/8] BAF | G d2 |[M:2/4] g2 gg | cB AG | 
d2 dd | d2 AB |$ c2 ce | d2 eB | BA AA | A2 dB | G2 GG | B2 AG |$ d2 ef | g2 g>f | f2 ed | ed cB | 
B3 A | !fermata!G2 |] 



